public/assets/images/others/icon/11.svg

<svg width="50" height="50" viewBox="0 0 50 50" fill="none" xmlns="http://www.w3.org/2000/svg">
<g clip-path="url(#clip0_840_13662)">
<path fill-rule="evenodd" clip-rule="evenodd" d="M11.8593 44.3139L12.4316 45.3252C12.432 45.3259 12.4324 45.3265 12.4328 45.3272C12.9401 46.2295 12.6183 47.381 11.7211 47.8877L9.6331 49.0712C9.63231 49.0717 9.63153 49.0721 9.63074 49.0726C8.72839 49.5799 7.57692 49.2581 7.06986 48.3605L0.929763 37.511C0.417802 36.6077 0.739567 35.4552 1.638 34.9478L3.72839 33.7643L3.72908 33.7639C4.62702 33.2568 5.77888 33.5755 6.29025 34.4734L6.29123 34.4752L6.75172 35.2888L12.1809 32.1455C13.8361 31.1882 15.528 30.5666 17.3459 31.1569C19.1025 31.7265 21.9702 32.9546 24.8969 33.4834C24.9315 33.4897 24.9656 33.4982 24.9991 33.5091C26.4998 33.995 27.4112 35.5128 27.0014 37.0368C26.9478 37.2366 26.8794 37.4244 26.7967 37.5992C27.0793 37.5111 27.3563 37.3888 27.6292 37.2298L35.0744 32.8937C37.7866 31.3136 39.5955 31.4916 40.6191 32.1782C41.5053 32.7728 41.9167 33.7876 41.8903 34.784C41.8635 35.7912 41.3823 36.7526 40.5924 37.2391L27.0828 45.5569C25.6508 46.4406 24.0824 46.6482 22.4575 46.2147L22.4566 46.2145L12.9706 43.6722L11.8593 44.3139ZM11.0655 46.0962L4.92702 35.2494C4.84163 35.0999 4.65015 35.0453 4.50055 35.1297L2.41074 36.3128L2.41006 36.3132C2.26143 36.3972 2.20976 36.5881 2.29437 36.7375L2.29466 36.7378L8.43506 47.5878L8.43535 47.5884C8.51976 47.7377 8.71153 47.7895 8.86153 47.7054L10.9476 46.523L10.9487 46.5225C11.098 46.4381 11.1498 46.2463 11.0655 46.0962ZM11.0867 42.9486L12.4676 42.1513C12.6478 42.0473 12.8619 42.019 13.0628 42.0729L22.862 44.6991C24.0552 45.0174 25.2076 44.8709 26.2589 44.222L26.2597 44.2216L39.7699 35.9034C40.1356 35.6782 40.3098 35.2087 40.3221 34.7424C40.3368 34.1901 40.1064 33.605 39.5224 33.3621C38.7544 33.0425 37.5758 33.2519 35.864 34.2491L28.419 38.5851C27.2158 39.2863 25.955 39.4804 24.5807 39.2617C24.5799 39.2615 24.579 39.2614 24.5781 39.2613L23.6552 39.1111C23.6548 39.111 20.3811 38.252 18.6511 37.7871C18.2331 37.6747 17.9849 37.2441 18.0972 36.8261C18.2096 36.408 18.6402 36.1598 19.0582 36.2722C20.7456 36.7256 22.2667 37.2229 23.9048 37.5617C24.71 37.6501 25.3013 37.3198 25.4865 36.6298L25.4866 36.6294C25.6741 35.9326 25.2367 35.2582 24.5604 35.0166C21.5753 34.4681 18.6538 33.23 16.8618 32.6489L16.8615 32.6488C15.4829 32.2012 14.2215 32.7775 12.9663 33.5033L7.52437 36.6541L11.0867 42.9486ZM4.18212 36.3685C4.65594 36.2979 5.09604 36.6252 5.16653 37.0991C5.23427 37.573 4.90702 38.0159 4.4331 38.0835C3.95927 38.1541 3.51917 37.824 3.44868 37.3502C3.38094 36.8763 3.70819 36.4362 4.18212 36.3685ZM8.8927 10.8483C13.4259 10.8483 17.0999 14.5224 17.0999 19.0556C17.0999 23.5887 13.4259 27.2627 8.8927 27.2627C4.35957 27.2627 0.685547 23.5887 0.685547 19.0556C0.685547 14.5224 4.35957 10.8483 8.8927 10.8483ZM14.427 22.7235C15.1248 21.6727 15.5312 20.4117 15.5312 19.0556C15.5312 15.3888 12.5595 12.417 8.8927 12.417C5.22594 12.417 2.25417 15.3888 2.25417 19.0556C2.25417 20.4117 2.66065 21.6727 3.35839 22.7235C3.93457 21.2964 5.04623 20.1428 6.44408 19.5124C5.85221 18.8989 5.48702 18.0656 5.48702 17.1507C5.48702 15.277 7.01898 13.745 8.8927 13.745C10.7665 13.745 12.2985 15.277 12.2985 17.1507C12.2985 18.0656 11.9333 18.8989 11.3413 19.5124C12.7393 20.1428 13.8509 21.2964 14.427 22.7235ZM4.5781 24.1012C5.73839 25.0943 7.24545 25.6941 8.8927 25.6941C10.5401 25.6941 12.047 25.0943 13.2074 24.1012C12.81 22.0807 11.0287 20.5565 8.8927 20.5565C6.75682 20.5565 4.97555 22.0807 4.5781 24.1012ZM8.8927 18.9878C9.90349 18.9878 10.7299 18.1615 10.7299 17.1507C10.7299 16.14 9.90349 15.3136 8.8927 15.3136C7.88202 15.3136 7.05564 16.14 7.05564 17.1507C7.05564 18.1615 7.88202 18.9878 8.8927 18.9878ZM27.0667 2.04893C27.5205 2.18569 27.9594 2.36746 28.3773 2.59206L29.2185 2.21804C29.5151 2.08618 29.8622 2.15059 30.0917 2.3801L31.5113 3.79971C31.7405 4.02893 31.8052 4.37549 31.6739 4.67197C31.6739 4.67197 31.3011 5.51344 31.301 5.51344C31.526 5.93206 31.7081 6.37167 31.845 6.82706L32.7025 7.15716C33.0054 7.27373 33.2052 7.56471 33.2052 7.88912V9.89716C33.2052 10.2217 33.0054 10.5127 32.7025 10.6292L31.8445 10.9594C31.7073 11.4132 31.5249 11.8521 31.3007 12.2701L31.6739 13.1124C31.8052 13.4088 31.7405 13.7554 31.5113 13.9846L30.0917 15.4042C29.8625 15.6334 29.5159 15.698 29.2195 15.5668C29.2195 15.5668 28.3784 15.1942 28.3784 15.1941C27.9606 15.4188 27.5209 15.6008 27.0664 15.7376L26.7363 16.5954C26.6198 16.8982 26.3288 17.098 26.0043 17.098H23.9962C23.6718 17.098 23.3808 16.8982 23.2643 16.5954L22.9342 15.7377C22.479 15.6005 22.0397 15.4178 21.6213 15.1936L20.7791 15.5668C20.4826 15.698 20.136 15.6334 19.9068 15.4042L18.4872 13.9846C18.2577 13.7551 18.1933 13.4079 18.3252 13.1114L18.699 12.2707C18.4745 11.8532 18.2925 11.4138 18.1549 10.9597L17.296 10.6292C16.9932 10.5127 16.7934 10.2217 16.7934 9.89716V7.88912C16.7934 7.56471 16.9932 7.27373 17.296 7.15716C17.296 7.15716 18.1547 6.82667 18.1546 6.82677C18.2923 6.37167 18.4744 5.93236 18.6991 5.51412L18.3252 4.67295C18.1933 4.37638 18.2577 4.02922 18.4872 3.79971L19.9068 2.3801C20.1363 2.15059 20.4835 2.08618 20.7801 2.21804C20.7801 2.21804 21.6212 2.59206 21.6211 2.59206C22.0394 2.36736 22.4784 2.18549 22.9325 2.04873L23.2646 1.18824C23.3812 0.885789 23.672 0.686279 23.9962 0.686279H26.0043C26.329 0.686279 26.6201 0.886279 26.7364 1.18932L27.0667 2.04893ZM25.7453 2.98344L25.4655 2.25491H24.5343L24.2527 2.98451C24.1597 3.22559 23.9538 3.4054 23.7024 3.4652C23.1285 3.60157 22.5811 3.82834 22.0781 4.13834C21.8577 4.27412 21.5846 4.29246 21.348 4.18726L20.6351 3.8702L19.9773 4.52795L20.2944 5.24089C20.3996 5.47746 20.3812 5.75059 20.2454 5.97098C19.9351 6.47461 19.7082 7.02265 19.5699 7.59893C19.5097 7.84991 19.3298 8.0552 19.089 8.14795L18.362 8.42765V9.35863L19.089 9.63844C19.3297 9.73108 19.5094 9.93608 19.5698 10.1869C19.708 10.7611 19.9346 11.3107 20.2448 11.8123C20.3811 12.0328 20.3997 12.3065 20.2944 12.5434L19.9773 13.2564L20.6356 13.9146L21.349 13.5986C21.5847 13.4942 21.8566 13.5124 22.0764 13.647C22.58 13.9555 23.1276 14.1845 23.7039 14.321C23.9557 14.3807 24.162 14.5609 24.2551 14.8025L24.5348 15.5294H25.4657L25.7455 14.8025C25.8385 14.5611 26.0445 14.381 26.2961 14.3212C26.8697 14.1849 27.4185 13.9584 27.9194 13.6487C28.1396 13.5126 28.4128 13.4938 28.6496 13.5986L29.3629 13.9146L30.0217 13.2558L29.7057 12.5425C29.6013 12.3068 29.6195 12.0348 29.7541 11.815C30.0627 11.3115 30.2917 10.7636 30.4283 10.189C30.4881 9.93736 30.6682 9.73138 30.9096 9.63844L31.6365 9.35863V8.42765L30.9096 8.14795C30.668 8.05491 30.4878 7.84863 30.4281 7.59677C30.2918 7.02118 30.0651 6.47393 29.7552 5.97098C29.6196 5.75089 29.6011 5.47824 29.7057 5.24187L30.0217 4.52853L29.3635 3.8702L28.6505 4.18726C28.414 4.29246 28.1408 4.27412 27.9204 4.13834C27.4174 3.82834 26.8701 3.60157 26.2961 3.4652C26.0444 3.4053 25.8382 3.2251 25.7453 2.98344ZM24.9993 4.6054C27.3678 4.6054 29.2881 6.52363 29.2881 8.89216C29.2881 11.2606 27.3677 13.181 24.9993 13.181C22.6307 13.181 20.7125 11.2607 20.7125 8.89216C20.7125 6.52353 22.6306 4.6054 24.9993 4.6054ZM24.9993 6.17402C23.4974 6.17402 22.2811 7.3903 22.2811 8.89216C22.2811 10.3942 23.4972 11.6124 24.9993 11.6124C26.5014 11.6124 27.7195 10.3943 27.7195 8.89216C27.7195 7.3901 26.5013 6.17402 24.9993 6.17402ZM41.1071 27.2627C36.5876 27.2627 32.9012 23.5764 32.9012 19.0569C32.9012 14.5374 36.5876 10.851 41.1071 10.851C45.6266 10.851 49.313 14.5374 49.313 19.0569C49.313 23.5764 45.6266 27.2627 41.1071 27.2627ZM41.1071 25.6941C44.7627 25.6941 47.7444 22.7125 47.7444 19.0569C47.7444 15.4013 44.7627 12.4196 41.1071 12.4196C37.4515 12.4196 34.4699 15.4013 34.4699 19.0569C34.4699 22.7125 37.4515 25.6941 41.1071 25.6941ZM40.3228 14.7227V14.362C40.3228 13.9291 40.6743 13.5777 41.1071 13.5777C41.54 13.5777 41.8914 13.9291 41.8914 14.362V14.7138C42.7783 14.9183 43.5939 15.4927 44.0166 16.5001C44.1842 16.8993 43.996 17.3593 43.5969 17.5269C43.1978 17.6943 42.7377 17.5063 42.5703 17.1071C42.1945 16.2117 41.1895 16.0337 40.4691 16.3172C40.0647 16.4763 39.7352 16.7982 39.7587 17.2728L39.7588 17.2748C39.776 17.6407 40.0179 17.8463 40.3006 17.9843C40.59 18.1256 40.9248 18.204 41.2406 18.2555L41.242 18.2557C42.5895 18.4776 44.0604 19.0987 44.253 20.7005C44.4411 22.254 43.2055 23.1632 41.8914 23.4156V23.7542C41.8914 24.1871 41.54 24.5385 41.1071 24.5385C40.6743 24.5385 40.3228 24.1871 40.3228 23.7542V23.404C39.2131 23.166 38.2611 22.4283 37.9663 21.2442C37.8618 20.8241 38.118 20.3982 38.538 20.2937C38.9581 20.1891 39.384 20.4453 39.4886 20.8653C39.6765 21.6207 40.4457 21.9375 41.1844 21.9191H41.1861C41.5879 21.91 42.0356 21.8119 42.3652 21.5847C42.5844 21.4335 42.7344 21.2076 42.6957 20.8889L42.6956 20.888C42.6451 20.4668 42.3544 20.2386 42.0209 20.0873C41.6978 19.9404 41.3306 19.86 40.9885 19.8037C39.6672 19.5885 38.2659 18.9156 38.1919 17.3489C38.133 16.1465 38.8699 15.2606 39.8948 14.8575C40.033 14.803 40.1761 14.758 40.3228 14.7227ZM25.7836 25.2225C25.7836 25.6553 25.4321 26.0068 24.9993 26.0068C24.5664 26.0068 24.215 25.6553 24.215 25.2225V19.8876C24.215 19.4547 24.5664 19.1032 24.9993 19.1032C25.4321 19.1032 25.7836 19.4547 25.7836 19.8876V25.2225ZM27.8497 28.1413C27.5103 28.4099 27.0165 28.3524 26.748 28.0128C26.4794 27.6733 26.5369 27.1797 26.8764 26.9111L31.4607 23.284C31.8002 23.0154 32.2939 23.0729 32.5624 23.4125C32.831 23.7519 32.7735 24.2456 32.434 24.5141L27.8497 28.1413ZM23.1221 26.9111C23.4616 27.1797 23.5192 27.6733 23.2505 28.0128C22.982 28.3524 22.4883 28.4099 22.1489 28.1413L17.5646 24.5141C17.2251 24.2456 17.1675 23.7519 17.4361 23.4125C17.7047 23.0729 18.1984 23.0154 18.5378 23.284L23.1221 26.9111Z" fill="#615EFC"/>
</g>
<defs>
<clipPath id="clip0_840_13662">
<rect width="50" height="50" fill="white"/>
</clipPath>
</defs>
</svg>

<svg xmlns="http://www.w3.org/2000/svg" width="50" height="50" fill="none" viewBox="0 0 50 50"><g clip-path="url(#a)"><path fill="#615efc" fill-rule="evenodd" d="m11.86 44.314.572 1.011v.002a1.887 1.887 0 0 1-.71 2.56l-2.089 1.184-.002.002a1.887 1.887 0 0 1-2.561-.712L.93 37.51a1.884 1.884 0 0 1 .708-2.563l2.09-1.184h.001a1.89 1.89 0 0 1 2.561.71l.001.001.46.814 5.43-3.144c1.655-.957 3.347-1.578 5.165-.988 1.756.57 4.624 1.798 7.55 2.326a1 1 0 0 1 .103.026c1.5.486 2.412 2.004 2.002 3.528q-.08.3-.204.562.423-.131.832-.37l7.445-4.335c2.713-1.58 4.522-1.402 5.545-.716.886.595 1.298 1.61 1.271 2.606-.026 1.007-.508 1.969-1.298 2.455l-13.51 8.318c-1.431.884-3 1.091-4.625.658l-9.486-2.543zm-.794 1.782L4.927 35.25a.315.315 0 0 0-.426-.12l-2.09 1.184a.31.31 0 0 0-.117.424l6.141 10.85v.001c.085.15.277.201.427.117l2.086-1.182a.314.314 0 0 0 .117-.427m.02-3.147 1.382-.798a.78.78 0 0 1 .595-.078l9.799 2.626c1.193.318 2.346.172 3.397-.477l13.51-8.319c.367-.225.54-.694.553-1.16.015-.553-.216-1.138-.8-1.38-.768-.32-1.946-.111-3.658.886l-7.445 4.336c-1.203.701-2.464.895-3.838.677h-.003l-.923-.15c0-.001-3.274-.86-5.004-1.325a.785.785 0 0 1 .407-1.515c1.688.454 3.209.95 4.847 1.29.805.088 1.396-.242 1.581-.932.188-.697-.25-1.372-.926-1.613-2.985-.549-5.906-1.787-7.698-2.368-1.38-.448-2.64.129-3.896.854l-5.442 3.151zm-6.904-6.58a.866.866 0 1 1 .251 1.715.866.866 0 1 1-.251-1.715m4.71-25.52a8.207 8.207 0 0 1 8.208 8.207 8.207 8.207 0 0 1-8.207 8.207 8.207 8.207 0 0 1-8.207-8.207 8.207 8.207 0 0 1 8.207-8.208m5.535 11.875a6.638 6.638 0 0 0-5.534-10.307 6.638 6.638 0 0 0-5.535 10.307 6 6 0 0 1 3.086-3.212 3.4 3.4 0 0 1-.957-2.361 3.415 3.415 0 0 1 3.406-3.406 3.415 3.415 0 0 1 3.406 3.406c0 .915-.366 1.748-.958 2.361a6 6 0 0 1 3.086 3.212M4.578 24.1a6.6 6.6 0 0 0 4.315 1.593c1.647 0 3.154-.6 4.314-1.593a4.4 4.4 0 0 0-8.629 0m4.315-5.113c1.01 0 1.837-.826 1.837-1.837s-.827-1.837-1.837-1.837-1.837.826-1.837 1.837c0 1.01.826 1.837 1.837 1.837m18.174-16.94q.681.207 1.31.544l.841-.374a.78.78 0 0 1 .874.162l1.42 1.42a.78.78 0 0 1 .162.872l-.373.841q.338.63.544 1.314l.858.33a.78.78 0 0 1 .502.732v2.008c0 .325-.2.616-.502.732l-.859.33q-.207.682-.543 1.311l.373.842a.78.78 0 0 1-.163.873l-1.42 1.42a.78.78 0 0 1-.872.162l-.84-.373a7 7 0 0 1-1.313.544l-.33.857a.78.78 0 0 1-.732.503h-2.008a.78.78 0 0 1-.732-.503l-.33-.857a7 7 0 0 1-1.313-.544l-.842.373a.785.785 0 0 1-.872-.163l-1.42-1.42a.78.78 0 0 1-.162-.873l.374-.84a7 7 0 0 1-.544-1.311l-.859-.33a.78.78 0 0 1-.503-.733V7.89c0-.324.2-.615.503-.732l.859-.33q.207-.684.544-1.313l-.374-.841a.78.78 0 0 1 .162-.873l1.42-1.42a.78.78 0 0 1 .873-.162l.841.374a7 7 0 0 1 1.312-.543l.332-.86a.78.78 0 0 1 .731-.503h2.008c.325 0 .616.2.732.503zm-1.322.935-.28-.728h-.93l-.282.73a.78.78 0 0 1-.55.48 5.5 5.5 0 0 0-1.625.673.78.78 0 0 1-.73.05l-.713-.318-.658.658.317.713a.78.78 0 0 1-.049.73 5.6 5.6 0 0 0-.675 1.628.79.79 0 0 1-.481.549l-.727.28v.93l.727.28c.24.093.42.298.48.549.139.574.366 1.124.676 1.625.136.22.155.495.05.731l-.318.713.659.659.713-.316a.78.78 0 0 1 .727.048 5.6 5.6 0 0 0 1.628.674c.252.06.458.24.551.482l.28.726h.93l.28-.726a.79.79 0 0 1 .551-.482 5.5 5.5 0 0 0 1.623-.672.79.79 0 0 1 .73-.05l.714.316.659-.66-.316-.713a.79.79 0 0 1 .048-.727 5.6 5.6 0 0 0 .674-1.626.78.78 0 0 1 .482-.55l.727-.28v-.931l-.727-.28a.79.79 0 0 1-.482-.551 5.5 5.5 0 0 0-.673-1.626.79.79 0 0 1-.05-.73l.317-.712-.659-.659-.712.317a.78.78 0 0 1-.73-.049 5.5 5.5 0 0 0-1.625-.673.79.79 0 0 1-.55-.482M25 4.605a4.287 4.287 0 1 1 0 8.576 4.287 4.287 0 0 1-4.286-4.289A4.285 4.285 0 0 1 25 4.605m0 1.569a2.719 2.719 0 1 0 .001 5.44 2.719 2.719 0 0 0 0-5.44m16.108 21.089c-4.52 0-8.206-3.687-8.206-8.206s3.687-8.206 8.206-8.206 8.206 3.686 8.206 8.206-3.686 8.206-8.206 8.206m0-1.569c3.656 0 6.637-2.982 6.637-6.637 0-3.656-2.981-6.637-6.637-6.637s-6.639 2.98-6.639 6.637 2.982 6.637 6.637 6.637m-.784-10.971v-.361a.785.785 0 0 1 1.568 0v.352a2.98 2.98 0 0 1 2.126 1.786.785.785 0 0 1-1.447.607c-.376-.895-1.38-1.073-2.1-.79-.405.16-.735.481-.711.956v.002c.017.366.259.571.542.71.289.14.624.219.94.27h.001c1.348.223 2.818.844 3.011 2.446.188 1.553-1.047 2.462-2.362 2.715v.338a.785.785 0 0 1-1.568 0v-.35c-1.11-.238-2.062-.976-2.357-2.16a.785.785 0 0 1 1.523-.379c.188.756.957 1.073 1.695 1.054h.002c.402-.009.85-.107 1.18-.334.218-.152.368-.377.33-.696v-.001c-.05-.421-.342-.65-.675-.8-.323-.148-.69-.228-1.032-.284-1.322-.215-2.723-.888-2.797-2.455-.059-1.203.678-2.088 1.703-2.492q.207-.081.428-.134m-14.54 10.5a.785.785 0 0 1-1.568 0v-5.335a.785.785 0 0 1 1.569 0zm2.067 2.918a.785.785 0 0 1-.974-1.23l4.585-3.627a.785.785 0 0 1 .973 1.23zm-4.728-1.23a.785.785 0 0 1-.973 1.23l-4.584-3.627a.785.785 0 0 1 .973-1.23z" clip-rule="evenodd"/></g><defs><clipPath id="a"><path fill="#fff" d="M0 0h50v50H0z"/></clipPath></defs></svg>
